X: 1
T: Baltiorum, The
M: 9/8
L: 1/8
R: slip jig
K: Gmaj
|: d | G2 g ege dBG | G2 g e/f/ge f2 d | G2 g ege dBG | A2 g e/f/ge f2 :|
|: d | B2 B cBc dBG | B2 G cA/B/c d2 G | B2 B cBc dBG | A2 g e/f/ge f2 :|
